X:1
T:Title
%%score { ( 1 4 ) | ( 2 3 ) }
L:1/8
M:4/4
K:G
V:1 treble nm="Grand Piano"
V:4 treble 
V:2 bass 
V:3 bass 
V:1
 z4 z2[Q:1/4=100] D2 | [B,G]2 GG FF E2 | E4 D2 [B,G]2 | [CA]2 ^GG A2 [^C_B]B | B6 B2 | %5
 [=Fd]2 dd [EG]2 GA | [DB]4 G2 [B,G]2 | [A,F]2 A>G [A,F]2 [^CE]>[CE] |[M:3/4] [F,D]6 |[M:1/4] B2 | %10
[M:4/4] dd d2 ee B2 | z2 [Ac]4 z2 | [DFA]2 .[Fc]2 [Fc]2 .[Fe]2 | e2 d4 B2 | dd d2 ee B2 | %15
 [Ed]2[K:bass][K:treble] [Ec]4 z2 | [DG]4 [DA]2 z2 |[M:3/4] G6 |] %18
V:2
 z4 z2 B,2 | z2 B,B, DD C2 | C4 B,2 G,,2 | z2 B,B, C2 z ^C | z2[K:treble] G>E D2 D2 | %5
 z2[K:treble] =FF[K:bass] z2 ^DD | z4 B,2 G,,2 | z2 ^C>B, z2 G,>G, |[M:3/4] D,,6 | %9
[M:1/4][K:treble] [G,D]2 |[M:4/4] [G,B,G][G,B,G] [G,B,G]2 [G,CG][G,CG] [G,DG]2 | %11
 [D,D][D,D] [D,D]2 D,2 D,2 | D,2 .[D,A,]2 [D,A,]2 .[D,C]2 | [G,CG]2 [G,B,G]4 [G,D]2 | %14
 [G,B,G][G,B,G] [G,B,G]2 [G,CG][G,CG] [G,=F]2 | .[C,G,]2 [C,G,]2 A,,2 B,,2 | D,D, D,2 D,D, D,2 | %17
[M:3/4] z B, C2 B,2 |] %18
V:3
 x8 | G,,8- | G,,6 z2 | D,6 D,2 | G,,6[K:treble] z2 | B,,4[K:treble][K:bass] C,4 | G,,6 z2 | %7
 A,,4 A,,,4 |[M:3/4] x6 |[M:1/4][K:treble] x2 |[M:4/4] x8 | x8 | x8 | x8 | x8 | x8 | x8 | %17
[M:3/4] G,,6 |] %18
V:4
 x8 | x8 | x8 | x8 | D2 z2 z4 | x8 | x8 | x8 |[M:3/4] x6 |[M:1/4] x2 |[M:4/4] x8 | [Bd]2 z2 D2 D2 | %12
 x8 | x8 | x8 | z[K:bass] [C,G,][K:treble] z2 A,2 [A,EA]2 | B,B, B,2 CC [A,DF]2 | %17
[M:3/4] [B,D]D E2 D2 |] %18

